flaticon/seo-and-analytics/browser-5.svg

<svg xmlns="http://www.w3.org/2000/svg" width="32" height="32" viewBox="0 0 24 24">
    <path d="M2.800781 1.199219C1.921875 1.199219 1.199219 1.921875 1.199219 2.800781 1.199219 3.679688 1.921875 4.398438 2.800781 4.398438 3.679688 4.398438 4.398438 3.679688 4.398438 2.800781 4.398438 1.921875 3.679688 1.199219 2.800781 1.199219zM2.800781 3.601562C2.359375 3.601562 2 3.238281 2 2.800781 2 2.359375 2.359375 2 2.800781 2 3.238281 2 3.601562 2.359375 3.601562 2.800781 3.601562 3.238281 3.238281 3.601562 2.800781 3.601562zM6.398438 1.199219C5.519531 1.199219 4.800781 1.921875 4.800781 2.800781 4.800781 3.679688 5.519531 4.398438 6.398438 4.398438 7.28125 4.398438 8 3.679688 8 2.800781 8 1.921875 7.28125 1.199219 6.398438 1.199219zM6.398438 3.601562C5.960938 3.601562 5.601562 3.238281 5.601562 2.800781 5.601562 2.359375 5.960938 2 6.398438 2 6.839844 2 7.199219 2.359375 7.199219 2.800781 7.199219 3.238281 6.839844 3.601562 6.398438 3.601562zM10 1.199219C9.121094 1.199219 8.398438 1.921875 8.398438 2.800781 8.398438 3.679688 9.121094 4.398438 10 4.398438 10.878906 4.398438 11.601562 3.679688 11.601562 2.800781 11.601562 1.921875 10.878906 1.199219 10 1.199219zM10 3.601562C9.558594 3.601562 9.199219 3.238281 9.199219 2.800781 9.199219 2.359375 9.558594 2 10 2 10.441406 2 10.800781 2.359375 10.800781 2.800781 10.800781 3.238281 10.441406 3.601562 10 3.601562zM10 3.601562"/>
    <path d="M 22.878906 0 L 1.160156 0 C 0.519531 0 0 0.519531 0 1.160156 L 0 22.71875 C 0 23.441406 0.558594 24 1.28125 24 L 22.71875 24 C 23.441406 24 24 23.441406 24 22.71875 L 24 1.160156 C 24 0.519531 23.480469 0 22.878906 0 Z M 23.199219 22.71875 C 23.199219 23 23 23.199219 22.71875 23.199219 L 1.28125 23.199219 C 1 23.199219 0.800781 23 0.800781 22.71875 L 0.800781 5.601562 L 23.199219 5.601562 Z M 0.800781 4.800781 L 0.800781 1.160156 C 0.800781 0.960938 0.960938 0.800781 1.160156 0.800781 L 22.839844 0.800781 C 23.039062 0.800781 23.199219 0.960938 23.199219 1.160156 L 23.199219 4.800781 Z M 0.800781 4.800781"/>
    <path d="M 11.960938 19.601562 C 14.960938 19.601562 17.800781 17.839844 19.878906 14.640625 L 20.078125 14.320312 L 19.921875 14.121094 C 17.800781 10.921875 15.039062 9.160156 12 9.160156 C 8.960938 9.160156 6.160156 10.921875 4.078125 14.121094 L 3.878906 14.441406 L 4.039062 14.640625 C 6.160156 17.839844 8.960938 19.601562 11.960938 19.601562 Z M 12 10 C 13.320312 10 14.398438 11.078125 14.398438 12.398438 C 14.398438 13.71875 13.320312 14.800781 12 14.800781 C 10.679688 14.800781 9.601562 13.71875 9.601562 12.398438 C 9.601562 11.078125 10.679688 10 12 10 Z M 9.453125 10.46875 C 9.042969 11.007812 8.800781 11.675781 8.800781 12.398438 C 8.800781 14.160156 10.238281 15.601562 12 15.601562 C 13.761719 15.601562 15.199219 14.160156 15.199219 12.398438 C 15.199219 11.65625 14.941406 10.972656 14.511719 10.425781 C 16.226562 11.082031 17.8125 12.414062 19.121094 14.320312 C 17.199219 17.199219 14.640625 18.800781 11.960938 18.800781 C 9.320312 18.800781 6.800781 17.238281 4.878906 14.441406 C 6.167969 12.507812 7.746094 11.152344 9.453125 10.46875 Z M 9.453125 10.46875"/>
</svg>

<svg xmlns="http://www.w3.org/2000/svg" width="32" height="32" viewBox="0 0 24 24">
    <path d="M2.8 1.2c-.878 0-1.6.722-1.6 1.6 0 .88.722 1.598 1.6 1.598.88 0 1.598-.718 1.598-1.597 0-.88-.718-1.602-1.597-1.602zm0 2.402A.804.804 0 0 1 2 2.8C2 2.359 2.36 2 2.8 2c.438 0 .802.36.802.8 0 .438-.364.802-.801.802zm0 0M6.398 1.2c-.878 0-1.597.722-1.597 1.6 0 .88.719 1.598 1.597 1.598C7.281 4.398 8 3.68 8 2.801c0-.88-.719-1.602-1.602-1.602zm0 2.402a.801.801 0 0 1 0-1.602c.442 0 .801.36.801.8 0 .438-.36.802-.8.802zm0 0M10 1.2c-.879 0-1.602.722-1.602 1.6 0 .88.723 1.598 1.602 1.598.879 0 1.602-.718 1.602-1.597 0-.88-.723-1.602-1.602-1.602zm0 2.402a.804.804 0 0 1-.8-.801.802.802 0 0 1 1.6 0c0 .437-.359.8-.8.8zm0 0"/>
    <path d="M22.879 0H1.16C.52 0 0 .52 0 1.16V22.72C0 23.44.559 24 1.281 24H22.72C23.44 24 24 23.441 24 22.719V1.16C24 .52 23.48 0 22.879 0zm.32 22.719c0 .281-.199.48-.48.48H1.28c-.281 0-.48-.199-.48-.48V5.602h22.398zM.801 4.8V1.16C.8.96.96.8 1.16.8H22.84c.2 0 .36.16.36.36V4.8zm0 0"/>
    <path d="M11.96 19.602c3 0 5.84-1.762 7.919-4.961l.2-.32-.157-.2c-2.121-3.2-4.883-4.96-7.922-4.96-3.04 0-5.84 1.76-7.922 4.96l-.2.32.161.2c2.121 3.199 4.922 4.96 7.922 4.96zM12 10a2.404 2.404 0 0 1 2.398 2.398A2.407 2.407 0 0 1 12 14.801a2.407 2.407 0 0 1-2.398-2.403A2.404 2.404 0 0 1 12 10zm-2.547.469a3.175 3.175 0 0 0-.652 1.93A3.21 3.21 0 0 0 12 15.601a3.21 3.21 0 0 0 3.2-3.204c0-.742-.259-1.425-.688-1.972 1.715.656 3.3 1.988 4.61 3.894-1.923 2.88-4.481 4.48-7.161 4.48-2.64 0-5.16-1.562-7.082-4.359 1.289-1.933 2.867-3.289 4.574-3.972zm0 0"/>
</svg>
